Newaita-dark/actions/24/format-text-bold.svg

<svg height="24" viewBox="0 0 24 24" width="24" xmlns="http://www.w3.org/2000/svg"><path d="m11.90625 3.742188c-2.402344 0-4.523438.953124-5.71875 2.507812l-.472656.613281 2.832031 1.769531.394531-.476562c.441406-.542969 1.460938-1.023438 2.679688-1.023438h.574218c.890626 0 1.683594.25 2.210938.605469s.765625.765625.765625 1.171875v1.800782c-.96875-.421876-2.082031-.65625-3.265625-.65625-1.789062 0-3.421875.535156-4.632812 1.445312-1.214844.910156-2.023438 2.234375-2.023438 3.722656.023438.324219.023438.449219.179688 1.199219.703124 2.367187 3.394531 3.96875 6.476562 3.96875 1.183594 0 2.296875-.234375 3.265625-.65625v.546875h3.390625v-11.371094c0-1.488281-.804688-2.8125-2.019531-3.722656-1.214844-.910156-2.84375-1.445312-4.636719-1.445312zm-.285156 9.703124h.574218c.890626 0 1.683594.25 2.210938.605469.527344.351563.765625.761719.765625 1.171875 0 .40625-.238281.816406-.765625 1.171875s-1.320312.605469-2.210938.605469h-.574218c-.894532 0-1.6875-.25-2.214844-.605469s-.765625-.765625-.765625-1.171875c0-.410156.238281-.820312.765625-1.171875.527344-.355469 1.320312-.605469 2.214844-.605469zm0 0" fill="#e0e0e0"/></svg>

<?xml version="1.0" encoding="UTF-8"?>
<svg xmlns="http://www.w3.org/2000/svg" xmlns:xlink="http://www.w3.org/1999/xlink" width="24px" height="24px" viewBox="0 0 24 24" version="1.1">
<g id="surface1">
<path style=" stroke:none;fill-rule:nonzero;fill:rgb(87.843138%,87.843138%,87.843138%);fill-opacity:1;" d="M 11.90625 3.742188 C 9.503906 3.742188 7.382812 4.695312 6.1875 6.25 L 5.714844 6.863281 L 8.546875 8.632812 L 8.941406 8.15625 C 9.382812 7.613281 10.402344 7.132812 11.621094 7.132812 L 12.195312 7.132812 C 13.085938 7.132812 13.878906 7.382812 14.40625 7.738281 C 14.933594 8.09375 15.171875 8.503906 15.171875 8.910156 L 15.171875 10.710938 C 14.203125 10.289062 13.089844 10.054688 11.90625 10.054688 C 10.117188 10.054688 8.484375 10.589844 7.273438 11.5 C 6.058594 12.410156 5.25 13.734375 5.25 15.222656 C 5.273438 15.546875 5.273438 15.671875 5.429688 16.421875 C 6.132812 18.789062 8.824219 20.390625 11.90625 20.390625 C 13.089844 20.390625 14.203125 20.15625 15.171875 19.734375 L 15.171875 20.28125 L 18.5625 20.28125 L 18.5625 8.910156 C 18.5625 7.421875 17.757812 6.097656 16.542969 5.1875 C 15.328125 4.277344 13.699219 3.742188 11.90625 3.742188 Z M 11.621094 13.445312 L 12.195312 13.445312 C 13.085938 13.445312 13.878906 13.695312 14.40625 14.050781 C 14.933594 14.402344 15.171875 14.8125 15.171875 15.222656 C 15.171875 15.628906 14.933594 16.039062 14.40625 16.394531 C 13.878906 16.75 13.085938 17 12.195312 17 L 11.621094 17 C 10.726562 17 9.933594 16.75 9.40625 16.394531 C 8.878906 16.039062 8.640625 15.628906 8.640625 15.222656 C 8.640625 14.8125 8.878906 14.402344 9.40625 14.050781 C 9.933594 13.695312 10.726562 13.445312 11.621094 13.445312 Z M 11.621094 13.445312 "/>
</g>
</svg>
